X: 2
T: The Fourth Dragoon
R: march
M: 4/4
L: 1/8
K: Gmaj
D|G2G>G G2Bc|dB G>GG2 cd|ecg2dBg2|gfag fedc|
BdBG AcAF|GABc defg|bgfg fed^c|d2d>dd2z:|
|:z|a2a>a ac'ba|g2g>g gbag|fedg fedc|B2A2A>AA2|
G2G>G ABcd|ec g2fd g2|B>dc>e A>cF>A|G2G>GG2z:|
|:z|B4 A2A>A|G4FGAB|(dc)cc (cB)BB|B4A2A>A|
d4c4|B4ABcd|eccA AGGF|(A4G2)z:|
|:z|f>fa>af4|g>gb>bg4|GABc defa|g4fedc|
B4A2A>A|d4c4|B2(3BcAG2F2|(A4G2)z:|

